!!!OTL@@DE: Doctor Eisenbart
!!!COM: Volkslied des 18. Jahrh.
!!!ODT: <1800
!!!OMD: Allegro
!!!LYR: Eisenbart, Joh. Andreas
!!!LDT: 1661///-1727///
!!!OCL: Erk, Ludwig
!!!GCO: Deutscher Liederschatz, Band 1
**kern	**kern	**kern
*staff3	*staff2	*staff1
*Ipiano	*Ipiano	*Ivox
*clefF4	*clefG2	*clefG2
*k[b-e-]	*k[b-e-]	*k[b-e-]
*B-:	*B-:	*B-:
*M2/4	*M2/4	*M2/4
*MM120	*MM120	*MM120
8BB-\ 8B-\	8d/ 8f/	8f/
=1	=1	=1
*	*^	*
4BB-\ 4B-\	(8.b-/L	4d\	8.b-\
.	16f/Jk)	.	16f/
*	*v	*v	*
8BB-\ 8B-\L	8d/ 8f/L	8f/
8BB-\ 8B-\J	8d/ 8f/J	8f/
=2	=2	=2
8E-\ 8B-\L	8e-/ 8g/L	8g/
8BB-\ 8B-\J	8d/ 8f/J	8f/
4BB-\ 4B-\	4d/ 4f/	4f/
=3	=3	=3
4F\ 4A\	4e-/ 4f/	16f/
.	.	16g/
.	.	16a/
.	.	16b-\
8F\ 8A\L	8e-/ 8f/L	8cc\
8F\ 8c\J	8e-/ 8f/ 8a/J	8f/
=4	=4	=4
4BB-\ 4B-\	4d/ 4f/ 4b-/	4b-\
8r	8r	8r
8BB-\ 8B-\	8d/ 8f/	8f/
=5	=5	=5
*	*^	*
4BB-\ 4B-\	8.b-/L	4d\	8.b-\
.	16f/Jk	.	16f/
*	*v	*v	*
8BB-\ 8B-\L	8d/ 8f/L	8f/
8BB-\ 8B-\J	8d/ 8f/J	8f/
=6	=6	=6
8E-\ 8B-\L	8e-/ 8g/L	8g/
8BB-\ 8B-\J	8d/ 8f/J	8f/
4BB-\ 4B-\	4d/ 4f/	4f/
=7	=7	=7
4F\ 4A\	4e-/ 4f/	16f/
.	.	16g/
.	.	16a/
.	.	16b-\
8F\ 8A\L	8e-/ 8f/L	8cc\
8F\ 8c\J	8e-/ 8f/ 8a/J	8f/
=8	=8	=8
4BB-\ 4B-\	4d/ 4f/ 4b-/	4b-\
8r	8r	8r
8B-\	8f/ 8dd/	8dd\
=9	=9	=9
8F\ 8A\L	8f/ 8cc/L	8cc\
8B-\	8f/ 8dd/	8dd\
8F\ 8A\	8f/ 8cc/	8cc\
8B-\J	8f/ 8dd/J	8dd\
=10	=10	=10
8F\ 8A\L	8f/ 8cc/L	8cc\
8B-\J	8f/ 8dd/J	8dd\
4F\ 4A\	4f/ 4cc/	4cc\
=11	=11	=11
4CC/ 4C/	4en/ 4g/ 4cc/	16cc\
.	.	16cc\
.	.	16cc\
.	.	16cc\
8C\ 8G\L	8e/ 8g/ 8cc/L	8cc\
8En\ 8G\J	8c/ 8g/ 8b-/J	8b-\
=12	=12	=12
8F\ 8A\L	8c/ 8f/ 8a/L	8a/
8C\ 8B-\J	8en/ 8g/	8g/
8F\ 8A\L	8c/ 8f/J	8f/
8F\ 8A\J	8e-/ 8f/	8f/
=13	=13	=13
4BB-\ 4F\	8.d/ 8.f/L	8.f/
.	16d/ 16b-/Jk	16b-\
8BB-\ 8F\L	8d/ 8b-/L	8b-\
8BB-\ 8F\J	8d/ 8b-/J	8b-\
=14	=14	=14
*^	*	*
8.F/L	4BB-\	8.d/ 8.b-/L	8.b-\
16B-/Jk	.	16f/ 16dd/Jk	16dd\
4ryy	4BB-\ 4B-\	4f/ 4dd/	4dd\
=15	=15	=15	=15
4A/	4F\	4f/ 4cc/	16cc\
.	.	.	16cc\
.	.	.	16cc\
.	.	.	16cc\
4ryy	8F\ 8B-\L	8f/ 8dd/L	8dd\
.	8F\ 8A\J	8e-/ 8f/ 8cc/J	8cc\
*v	*v	*	*
=16	=16	=16
4BB-\ 4B-\	4d/ 4f/ 4b-/	4b-\
8r	8r	8r
==	==	==
*-	*-	*-
!!!ENC: Craig Stuart Sapp
!!!END: 2004/06/28/
!!!EFL: 184/651
